icons/glyphs/glyph-import.svg

<?xml version="1.0" encoding="UTF-8" standalone="no"?><svg height="22" viewBox="0 0 5.8208332 5.8208335" width="22" xmlns="http://www.w3.org/2000/svg"><sodipodi:namedview/><metadata><rdf:RDF><cc:Work><dc:format>image/svg+xml</dc:format><dc:type/><dc:title/><cc:license/><dc:creator><cc:Agent><dc:title>PixelPimps &amp; CodePoets</dc:title></cc:Agent></dc:creator></cc:Work><cc:License><cc:permits/><cc:permits/><cc:requires/><cc:requires/><cc:permits/></cc:License></rdf:RDF></metadata><path d="m .62373461 0v5.8208333h1.66294759 2.9104165v-4.365625l-1.4552083-1.4552083h-1.5895669v2.8876789c.00135.1717023.1305996.3028239.3023071.3028239h.4376994v-.8138918l1.6825847 1.0965619-1.6825847 1.0970787v-.7477461h-.532784c-.4522179 0-.8242391-.3720214-.8242391-.824239v-2.9982665z" fill="#eee" stroke-width=".207887"/></svg>

<?xml version="1.0" encoding="UTF-8" standalone="no"?>
<!-- Created with Inkscape (http://www.inkscape.org/) -->

<svg
   xmlns:dc="http://purl.org/dc/elements/1.1/"
   xmlns:cc="http://creativecommons.org/ns#"
   xmlns:rdf="http://www.w3.org/1999/02/22-rdf-syntax-ns#"
   xmlns:svg="http://www.w3.org/2000/svg"
   xmlns="http://www.w3.org/2000/svg"
   xmlns:sodipodi="http://sodipodi.sourceforge.net/DTD/sodipodi-0.dtd"
   xmlns:inkscape="http://www.inkscape.org/namespaces/inkscape"
   width="22"
   height="22"
   viewBox="0 0 5.8208332 5.8208335"
   version="1.1"
   id="svg8"
   inkscape:version="0.92+devel 15740 custom"
   sodipodi:docname="glyph-import.svg">
  <defs
     id="defs2">
    <linearGradient
       gradientTransform="translate(471.31814,349.93102)"
       x2="0"
       gradientUnits="userSpaceOnUse"
       y2="365.35999"
       y1="392.35999"
       id="a">
      <stop
         id="stop2"
         stop-opacity="0"
         stop-color="#ffffff" />
      <stop
         id="stop4"
         stop-opacity=".2"
         stop-color="#ffffff"
         offset="1" />
    </linearGradient>
    <linearGradient
       gradientTransform="translate(309.57,152.44)"
       x2="0"
       gradientUnits="userSpaceOnUse"
       y2="365.35999"
       y1="392.35999"
       id="linearGradient4314">
      <stop
         id="stop4310"
         stop-opacity="0"
         stop-color="#ffffff" />
      <stop
         id="stop4312"
         stop-opacity=".2"
         stop-color="#ffffff"
         offset="1" />
    </linearGradient>
  </defs>
  <sodipodi:namedview
     id="base"
     pagecolor="#002466"
     bordercolor="#ffffff"
     borderopacity="0.32156863"
     inkscape:pageopacity="1"
     inkscape:pageshadow="2"
     inkscape:zoom="19.090909"
     inkscape:cx="11"
     inkscape:cy="11"
     inkscape:document-units="px"
     inkscape:current-layer="svg8"
     inkscape:document-rotation="0"
     showgrid="false"
     units="px"
     inkscape:pagecheckerboard="false"
     borderlayer="true"
     inkscape:showpageshadow="false"
     inkscape:window-width="1920"
     inkscape:window-height="1051"
     inkscape:window-x="0"
     inkscape:window-y="0"
     inkscape:window-maximized="1" />
  <metadata
     id="metadata5">
    <rdf:RDF>
      <cc:Work
         rdf:about="">
        <dc:format>image/svg+xml</dc:format>
        <dc:type
           rdf:resource="http://purl.org/dc/dcmitype/StillImage" />
        <dc:title></dc:title>
        <cc:license
           rdf:resource="http://creativecommons.org/licenses/by/4.0/" />
        <dc:creator>
          <cc:Agent>
            <dc:title>PixelPimps &amp; CodePoets</dc:title>
          </cc:Agent>
        </dc:creator>
      </cc:Work>
      <cc:License
         rdf:about="http://creativecommons.org/licenses/by/4.0/">
        <cc:permits
           rdf:resource="http://creativecommons.org/ns#Reproduction" />
        <cc:permits
           rdf:resource="http://creativecommons.org/ns#Distribution" />
        <cc:requires
           rdf:resource="http://creativecommons.org/ns#Notice" />
        <cc:requires
           rdf:resource="http://creativecommons.org/ns#Attribution" />
        <cc:permits
           rdf:resource="http://creativecommons.org/ns#DerivativeWorks" />
      </cc:License>
    </rdf:RDF>
  </metadata>
  <path
     style="color:#000000;color-interpolation:sRGB;color-interpolation-filters:linearRGB;fill:#eeeeee;stroke-width:0.20788699;color-rendering:auto;image-rendering:auto;shape-rendering:auto;text-rendering:auto"
     d="M 0.62373461,0 V 5.8208333 H 2.2866822 5.1970987 V 1.4552083 L 3.7418904,0 H 2.1523235 v 2.8876789 c 0.00135,0.1717023 0.1305996,0.3028239 0.3023071,0.3028239 H 2.89233 l 0,-0.8138918 1.6825847,1.0965619 -1.6825847,1.0970787 0,-0.7477461 H 2.359546 c -0.4522179,0 -0.8242391,-0.3720214 -0.8242391,-0.824239 V 0 Z"
     id="use15"
     inkscape:connector-curvature="0"
     sodipodi:nodetypes="ccccccccscccccsscc"
     inkscape:label="#" />
</svg>
